school/img/country/NO.svg

<svg width="13" height="12" viewBox="0 0 13 12" fill="none" xmlns="http://www.w3.org/2000/svg">
<rect x="0.25" y="0.25" width="12.5" height="11.5" rx="1.75" fill="white" stroke="#F5F5F5" stroke-width="0.5"/>
<mask id="mask0" mask-type="alpha" maskUnits="userSpaceOnUse" x="0" y="0" width="13" height="12">
<rect x="0.25" y="0.25" width="12.5" height="11.5" rx="1.75" fill="white" stroke="white" stroke-width="0.5"/>
</mask>
<g mask="url(#mask0)">
<path fill-rule="evenodd" clip-rule="evenodd" d="M3.71429 0H0V4.8H3.71429V0ZM5.57143 0V4.8H13V0H5.57143ZM13 7.2H5.57143V12H13V7.2ZM3.71429 12V7.2H0V12H3.71429Z" fill="#F14247"/>
<path fill-rule="evenodd" clip-rule="evenodd" d="M0 6.4H4.33333V12H4.95238V6.4H13V5.6H4.95238V0H4.33333V5.6H0V6.4Z" fill="#0A3A85"/>
</g>
</svg>

<svg width="13" height="12" fill="none" xmlns="http://www.w3.org/2000/svg"><rect x=".25" y=".25" width="12.5" height="11.5" rx="1.75" fill="#fff" stroke="#F5F5F5" stroke-width=".5"/><mask id="a" maskUnits="userSpaceOnUse" x="0" y="0" width="13" height="12"><rect x=".25" y=".25" width="12.5" height="11.5" rx="1.75" fill="#fff" stroke="#fff" stroke-width=".5"/></mask><g mask="url(#a)" fill-rule="evenodd" clip-rule="evenodd"><path d="M3.714 0H0v4.8h3.714V0zm1.857 0v4.8H13V0H5.571zM13 7.2H5.571V12H13V7.2zM3.714 12V7.2H0V12h3.714z" fill="#F14247"/><path d="M0 6.4h4.333V12h.62V6.4H13v-.8H4.952V0h-.619v5.6H0v.8z" fill="#0A3A85"/></g></svg>
